X: 15978
T: Grasset's
R: reel
M: 4/4
K: Gmajor
"D"DA A/A/A FD AD|"C"C2 c2cA GE|"D"DA, A,/A,/A,[E2A,][D2G,]|"C"BccA F"G"G "C"~G2|
"D"AD D/D/D A,AAF|"C"G2 EC E/E/G B2|"D"df2d "C"~c2Bc|"G"G2 EC "C"EGBd:|
K:F
"Dm"A3B AG ED|"C"[E3C3] D ~ED E/F/G|"Bb7M"A3B Ad dA|"G"G2=BG FA "C"EC|
"Dm"A3B AG ED|"C"~E3G c4|"Bb7M"Ad d/d/d"G" =B,2 EB,|"Am"~A,3=B, "Dm"D4:|

